X: 5
T: Buck Moran's
S:Paddy O'Sullivan (fiddle), north Kerry
Z:Deirdre Sullivan & Paul de Grae <sullgrae:IOL.IE>
R:reel
M:4/4
L:1/8
K:A
AF | EFAB cB ~B2 | cBAc BcAF | EFAB c2 cf | ecBc A2 AF |
EFAB cB ~B2 | cBAc BcAF | EFAB c2 cf | ecBc A2 AB ||
ceec d2 fe | ceec BAFA | ceec d2 fd | ecBc A3 B |
c2 ec Ac e2 | (3ccc ec BcAB | cefg a2 af | ecAc ~B2 AF |]

%%sep 1 1 500

